packages/dnb-ui-lib/assets/icons/account_out_medium.svg

<svg width="24" height="24" viewBox="0 0 24 24" fill="none" xmlns="http://www.w3.org/2000/svg">
<path d="M14.6222 9.74998L15.0708 9.14893C14.9412 9.05223 14.7838 8.99998 14.6222 8.99998V9.74998ZM8.6278 9.74998V8.99998C8.46612 8.99998 8.30877 9.05223 8.1792 9.14893L8.6278 9.74998ZM11.625 23.25V24V23.25ZM8.24998 6.74999C7.83577 6.74999 7.49999 7.08577 7.49999 7.49999C7.49999 7.9142 7.83577 8.24998 8.24998 8.24998V6.74999ZM15 8.24998C15.4142 8.24998 15.75 7.9142 15.75 7.49999C15.75 7.08577 15.4142 6.74999 15 6.74999V8.24998ZM16.5 0.749999L16.9964 1.31216C17.2472 1.09066 17.321 0.729787 17.1772 0.427644C17.0333 0.125501 16.7067 -0.0448081 16.3767 0.0102045L16.5 0.749999ZM7.49999 2.25L7.37669 1.5102C7.06111 1.5628 6.81364 1.80978 6.76043 2.12525C6.70722 2.44072 6.85998 2.75522 7.14085 2.90842L7.49999 2.25ZM8.99998 5.24999H8.24998C8.24998 5.6642 8.58577 5.99999 8.99998 5.99999V5.24999ZM13.875 5.24999V5.99999C14.2892 5.99999 14.625 5.6642 14.625 5.24999H13.875ZM16.4415 12.4183C16.718 12.7268 17.1921 12.7527 17.5006 12.4762C17.809 12.1997 17.8349 11.7256 17.5584 11.4171L16.4415 12.4183ZM18.5132 22.0779C18.8153 21.7944 18.8303 21.3198 18.5468 21.0178C18.2633 20.7158 17.7887 20.7007 17.4867 20.9842L18.5132 22.0779ZM15.5 15.75C15.0858 15.75 14.75 16.0858 14.75 16.5C14.75 16.9142 15.0858 17.25 15.5 17.25V15.75ZM19.9696 18.4696C19.6767 18.7625 19.6767 19.2374 19.9696 19.5303C20.2625 19.8232 20.7374 19.8232 21.0303 19.5303L19.9696 18.4696ZM23 16.5L23.5303 17.0303C23.8232 16.7374 23.8232 16.2625 23.5303 15.9696L23 16.5ZM21.0303 13.4696C20.7374 13.1768 20.2625 13.1768 19.9696 13.4696C19.6767 13.7625 19.6767 14.2374 19.9696 14.5303L21.0303 13.4696ZM14.6222 8.99998H8.6278V10.5H14.6222V8.99998ZM8.1792 9.14893C6.94384 10.0709 5.66506 11.2922 4.68834 12.6677C3.71729 14.0352 2.99999 15.6192 2.99999 17.25H4.49999C4.49999 16.0498 5.0362 14.7686 5.91135 13.5362C6.78083 12.3117 7.94096 11.1985 9.07639 10.351L8.1792 9.14893ZM2.99999 17.25C2.99999 19.3267 3.51862 21.0893 4.98724 22.2981C6.4178 23.4755 8.60324 24 11.625 24V22.5C8.71704 22.5 6.96499 21.9831 5.94047 21.1399C4.95402 20.328 4.49999 19.0907 4.49999 17.25H2.99999ZM8.24998 8.24998H15V6.74999H8.24998V8.24998ZM16.3767 0.0102045L7.37669 1.5102L7.62328 2.98979L16.6233 1.48979L16.3767 0.0102045ZM7.49999 2.25C7.14085 2.90842 7.14049 2.90822 7.14014 2.90803C7.14003 2.90797 7.13969 2.90778 7.13947 2.90766C7.13903 2.90742 7.13862 2.9072 7.13823 2.90698C7.13744 2.90654 7.13674 2.90616 7.13612 2.90581C7.13489 2.90512 7.13399 2.90462 7.13342 2.9043C7.13228 2.90365 7.13245 2.90373 7.13384 2.90455C7.13662 2.9062 7.14422 2.91079 7.15599 2.91843C7.17957 2.93375 7.2194 2.96102 7.27021 3.00104C7.37224 3.08144 7.51535 3.21076 7.66025 3.39518C7.94381 3.75608 8.24998 4.34614 8.24998 5.24999H9.74998C9.74998 3.97202 9.30616 3.06209 8.83972 2.46845C8.60962 2.17559 8.37773 1.96401 8.19851 1.82281C8.1087 1.75204 8.03133 1.69835 7.97289 1.6604C7.94364 1.6414 7.91902 1.62628 7.89982 1.61488C7.89022 1.60918 7.88197 1.6044 7.87516 1.60052C7.87175 1.59859 7.8687 1.59687 7.86603 1.59538C7.86469 1.59464 7.86344 1.59395 7.86229 1.59331C7.86172 1.593 7.86117 1.59269 7.86064 1.5924C7.86037 1.59226 7.85999 1.59205 7.85986 1.59198C7.85949 1.59178 7.85912 1.59158 7.49999 2.25ZM8.99998 5.99999H13.875V4.49999H8.99998V5.99999ZM14.625 5.24999C14.625 4.42244 15.1435 3.4682 15.7817 2.63938C16.0872 2.2426 16.3945 1.90722 16.6258 1.67093C16.741 1.55322 16.8363 1.46121 16.9016 1.39966C16.9342 1.36891 16.9593 1.34584 16.9755 1.33104C16.9836 1.32364 16.9895 1.31832 16.9931 1.31515C16.9949 1.31356 16.996 1.31251 16.9966 1.31201C16.9969 1.31176 16.997 1.31165 16.997 1.31167C16.997 1.31169 16.9969 1.31173 16.9968 1.31181C16.9968 1.31185 16.9967 1.31194 16.9967 1.31196C16.9965 1.31206 16.9964 1.31216 16.5 0.749999C16.0035 0.187834 16.0034 0.187957 16.0032 0.188088C16.0032 0.188143 16.003 0.188284 16.0029 0.188395C16.0026 0.188617 16.0023 0.188876 16.002 0.18917C16.0013 0.189758 16.0005 0.190489 15.9995 0.191361C15.9976 0.193105 15.995 0.195415 15.9918 0.198281C15.9854 0.204014 15.9766 0.211975 15.9655 0.22209C15.9433 0.242314 15.9119 0.271178 15.8728 0.308077C15.7945 0.381823 15.6847 0.487971 15.5538 0.621684C15.2929 0.888232 14.9439 1.26876 14.5932 1.72424C13.9189 2.59997 13.125 3.89573 13.125 5.24999H14.625ZM17.5584 11.4171C16.7848 10.554 15.9193 9.78222 15.0708 9.14893L14.1736 10.351C14.9491 10.9299 15.7396 11.6354 16.4415 12.4183L17.5584 11.4171ZM11.625 24C14.8259 24 17.0928 23.4111 18.5132 22.0779L17.4867 20.9842C16.4916 21.9182 14.711 22.5 11.625 22.5V24ZM21.0303 19.5303L23.5303 17.0303L22.4696 15.9696L19.9696 18.4696L21.0303 19.5303ZM23.5303 15.9696L21.0303 13.4696L19.9696 14.5303L22.4696 17.0303L23.5303 15.9696ZM15.5 17.25H23V15.75H15.5V17.25Z" fill="black"/>
<path d="M10.799 19.4999H12.374L10.43 16.9889L12.239 14.9999H10.628L9.31398 16.6379V13.1999H7.99998V19.4999H9.31398V18.2129L9.63798 17.8529L10.799 19.4999Z" fill="black"/>
<path d="M12.957 19.4999H14.271V18.9609C13.2878 18.5297 12.9854 17.8385 12.957 17.5468V19.4999Z" fill="black"/>
</svg>

<svg width="24" height="24" viewBox="0 0 24 24" fill="none" xmlns="http://www.w3.org/2000/svg"><path d="M14.622 9.75l.449-.601A.75.75 0 0014.622 9v.75zm-5.994 0V9a.75.75 0 00-.449.149l.449.601zm2.997 13.5V24v-.75zM8.25 6.75a.75.75 0 100 1.5v-1.5zM15 8.25a.75.75 0 000-1.5v1.5zm1.5-7.5l.496.562a.75.75 0 00-.62-1.302l.124.74zm-9 1.5l-.123-.74a.75.75 0 00-.236 1.398L7.5 2.25zm1.5 3h-.75c0 .414.336.75.75.75v-.75zm4.875 0V6a.75.75 0 00.75-.75h-.75zm2.567 7.168a.75.75 0 101.116-1l-1.116 1zm2.071 9.66a.75.75 0 10-1.026-1.094l1.026 1.094zM15.5 15.75a.75.75 0 000 1.5v-1.5zm4.47 2.72a.75.75 0 001.06 1.06l-1.06-1.06zM23 16.5l.53.53a.75.75 0 000-1.06l-.53.53zm-1.97-3.03a.75.75 0 00-1.06 1.06l1.06-1.06zM14.622 9H8.628v1.5h5.994V9zm-6.443.149c-1.235.922-2.514 2.143-3.49 3.519C3.716 14.035 3 15.619 3 17.25h1.5c0-1.2.536-2.481 1.411-3.714.87-1.224 2.03-2.338 3.165-3.185L8.18 9.149zM3 17.25c0 2.077.519 3.84 1.987 5.048C6.417 23.476 8.603 24 11.625 24v-1.5c-2.908 0-4.66-.517-5.685-1.36-.986-.812-1.44-2.05-1.44-3.89H3zm5.25-9H15v-1.5H8.25v1.5zM16.377.01l-9 1.5.246 1.48 9-1.5-.246-1.48zM7.5 2.25l-.36.658-.002-.001-.002-.001-.003-.002.023.014a2.361 2.361 0 01.504.477c.284.361.59.951.59 1.855h1.5c0-1.278-.444-2.188-.91-2.782a3.86 3.86 0 00-.641-.645 3.057 3.057 0 00-.333-.228l-.004-.002h-.001l-.001-.001-.36.658zM9 6h4.875V4.5H9V6zm5.625-.75c0-.828.518-1.782 1.157-2.61a11.01 11.01 0 011.211-1.325l.004-.003L16.5.75l-.497-.562-.001.001L16 .191l-.008.007a4.368 4.368 0 00-.12.11 12.514 12.514 0 00-1.28 1.416c-.673.876-1.467 2.172-1.467 3.526h1.5zm2.933 6.167a17.182 17.182 0 00-2.487-2.268l-.897 1.202a15.7 15.7 0 012.268 2.067l1.116-1zM11.625 24c3.2 0 5.468-.589 6.888-1.922l-1.026-1.094c-.995.934-2.776 1.516-5.862 1.516V24zm9.405-4.47l2.5-2.5-1.06-1.06-2.5 2.5 1.06 1.06zm2.5-3.56l-2.5-2.5-1.06 1.06 2.5 2.5 1.06-1.06zm-8.03 1.28H23v-1.5h-7.5v1.5zm-4.701 2.25h1.575l-1.944-2.511 1.809-1.99h-1.611l-1.314 1.639V13.2H8v6.3h1.314v-1.287l.324-.36 1.161 1.647zm2.158 0h1.314v-.54c-.983-.43-1.286-1.122-1.314-1.413V19.5z" fill="#000"/></svg>
